icons/desktop/16/svg/cryptominer-slash-16.svg

<svg width="16" height="16" viewBox="0 0 16 16" fill="none" xmlns="http://www.w3.org/2000/svg">
<path fill-rule="evenodd" clip-rule="evenodd" d="M0.219792 0.220462C0.512685 -0.0724316 0.987446 -0.0724316 1.28034 0.220462L15.7803 14.7205C16.073 15.0134 16.0732 15.4882 15.7803 15.781C15.4875 16.0736 15.0126 16.0736 14.7198 15.781L10.4835 11.5447L10.4796 13.7566C10.4764 14.9933 9.46622 16.0005 8.22956 16.0007H7.77253C6.53564 16.0007 5.52572 14.9934 5.52253 13.7566L5.50592 6.71656C5.49795 6.71058 5.48948 6.70593 5.48249 6.69898C4.18249 6.85398 2.89283 7.12055 1.63483 7.50855C1.51293 7.54549 1.38668 7.56421 1.26178 7.56421C0.939903 7.56414 0.624685 7.44156 0.387761 7.21265C0.056798 6.89468 -0.0749192 6.41935 0.0440107 5.97339V5.97144C0.359927 4.78553 1.00201 3.73665 1.85651 2.91773L0.219792 1.28101C-0.0730199 0.988197 -0.0728571 0.513374 0.219792 0.220462ZM7.02253 13.7527C7.02377 14.1645 7.36067 14.5007 7.77253 14.5007H8.22956C8.64119 14.5005 8.97932 14.1643 8.97956 13.7527L8.98639 10.0476L7.00885 8.07007L7.02253 13.7527ZM2.9151 3.97632C2.34415 4.51436 1.89442 5.18613 1.62116 5.94702C2.50879 5.69183 3.40496 5.50945 4.30964 5.37085L2.9151 3.97632Z" fill="black"/>
<path fill-rule="evenodd" clip-rule="evenodd" d="M6.26569 0.137454C7.40059 -0.0455303 8.57879 -0.0454521 9.7237 0.135501C10.3097 0.227501 10.7639 0.665649 10.9249 1.21265C10.9369 1.21565 10.949 1.21651 10.961 1.21851C13.354 1.70351 15.3151 3.57039 15.9561 5.97339C16.0751 6.41935 15.9434 6.89468 15.6114 7.21265C15.2825 7.52955 14.8012 7.64339 14.3633 7.50757C13.1043 7.11957 11.8157 6.86272 10.5157 6.70972C10.5087 6.7155 10.4991 6.71951 10.4923 6.72632L10.4903 7.66089L8.55671 5.72827C8.87271 5.71027 9.18711 5.68157 9.49811 5.63257L9.50007 5.62866V1.62085C8.99709 1.53986 8.49604 1.50074 8.00007 1.50074C7.49808 1.50074 6.99403 1.53993 6.50104 1.61792V3.67163L4.26374 1.43433C4.51274 1.34933 4.76643 1.27346 5.02643 1.22046C5.04232 1.21751 5.05841 1.2166 5.07331 1.21363C5.22927 0.662742 5.67388 0.231576 6.26569 0.137454ZM11.0001 5.27515C12.138 5.42214 13.269 5.62806 14.378 5.94605C13.822 4.40215 12.548 3.21499 11.0001 2.78101V5.27515Z" fill="black"/>
</svg>

<!-- This Source Code Form is subject to the terms of the Mozilla Public
   - License, v. 2.0. If a copy of the MPL was not distributed with this
   - file, You can obtain one at http://mozilla.org/MPL/2.0/. -->
<svg xmlns="http://www.w3.org/2000/svg" width="16" height="16" fill="context-fill" fill-opacity="context-fill-opacity" viewBox="0 0 16 16">
    <path fill-rule="evenodd" d="M.22.22a.75.75 0 0 1 1.06 0l14.5 14.5a.75.75 0 0 1-1.06 1.061l-4.237-4.236-.003 2.212A2.255 2.255 0 0 1 8.23 16h-.457a2.254 2.254 0 0 1-2.25-2.244l-.017-7.04q-.013-.008-.024-.018c-1.3.155-2.59.422-3.847.81a1.258 1.258 0 0 1-1.247-.296 1.27 1.27 0 0 1-.344-1.24v-.002a6.6 6.6 0 0 1 1.813-3.053L.22 1.28a.75.75 0 0 1 0-1.06m6.803 13.533a.75.75 0 0 0 .75.748h.457c.411 0 .75-.337.75-.748l.006-3.705L7.01 8.07zM2.915 3.976a5.06 5.06 0 0 0-1.294 1.971 21.5 21.5 0 0 1 2.689-.576zM6.266.137A11 11 0 0 1 9.724.136a1.51 1.51 0 0 1 1.2 1.077l.037.006c2.393.485 4.354 2.351 4.995 4.754a1.264 1.264 0 0 1-1.593 1.535 21.6 21.6 0 0 0-3.847-.798q-.012.007-.024.016l-.002.935-1.933-1.933c.316-.018.63-.046.941-.095l.002-.004V1.62a9.62 9.62 0 0 0-2.999-.003v2.054L4.264 1.434c.249-.085.502-.16.762-.214q.024-.002.047-.006c.156-.551.6-.982 1.193-1.077M11 5.275c1.138.147 2.269.353 3.378.671A5.08 5.08 0 0 0 11 2.781z" clip-rule="evenodd" />
</svg>
